X: 643
T: Julia Delaney
C: anon.
O: Ireland
B: Francis O'Neill: "The Dance Music of Ireland" (1907) no. 643
R: Reel
Z: Transcribed by Frank Nordberg - http://www.musicaviva.com
F: http://www.musicaviva.com/abc/tunes/ireland/oneill-1001/oneill-1001-064
3.abc
m: Tn = (3n/o/n/
M: C|
L: 1/8
K: D
dcAG (3(EFG) DE|G2 ({B}A)G (EG)G2|dcAG (3(EFG) DG|[1Addc defe:|[2Addc d2d
2||cdef g2fg|
agef g2(ed)|cdef g2(AG)|Addc dfed|cdef g2fg|(3(agf) ef g2(fg)|(3(agf) (3(
gfe) (fd) (ec)|d2Tdc defe|]
W:
W:
W: From Musica Viva - http://www.musicaviva.com
W: the Internet center for free sheet music downloads.


